X: 569
T: Slängpolska från Finnika
S: efter Spet-Kalle Sjödin
O: Hälsingland, Enånger
R: Slängpolska
Z: Håkan Lidén, 2008-09-28
M: 3/4
L: 1/8
K: G
B>G G>B d>B | B>A A2 A2 | f>d d>f a>g | f>e d3 c | B>G G>B d>B | 
B>A A2 A2 | f>d d>f a>f | g2 g4 :: b2 bg a>g | g2 gc e2 | 
d2 dc A>F | G2 Bd g2 | b2 bg a>g | g2 gc e2 | d2 fe c>A | G2 G4 :|
(:musicend:)

(:music:)
